X:1
T:Title
%%score { ( 1 3 ) | ( 2 4 ) }
L:1/8
M:4/4
K:Bb
V:1 treble nm="Grand Piano"
V:3 treble 
V:2 bass 
V:4 bass 
V:1
 z4 z2[Q:1/4=100] [B,D][CE] | [DF][DF][DF][DF] [EG][DF][FB][Fc] | [Fd]4 [DFB]2 [B,FB][B,FA] | %3
 [B,EG][B,EG][B,EG][EGc] [EGB]2 [B,EG]2 | [DF]6[K:bass] z2 | [DF][DF][DF][DF] [EG][DF][FB][Fd] | %6
[M:3/4] c4 G2 |[M:1/4] G[GB] |[M:4/4] AAAG F2 c2 |[M:3/4] B2- [EB-][EB-] [DB]2 |[M:1/4] BA | %11
[M:4/4] [EG]6 z2 | z [DF]3- [DF]2 z2 | cccc [FB]2 [Fc]2 | [Fd]6 z2 | %15
 [B,EG][B,EG][B,EG][EGc] [EGB]2 [B,EG]2 |[M:3/4] z [DF]- [DF]4 |[M:1/4] G[GB] |[M:4/4] AAAG F2 c2 | %19
[M:7/4] B2- [EB-][EB-] [DB]2 z2 z2 z4 |] %20
V:2
 z4 z2 [B,,F,][B,,F,] | [B,,B,][B,,B,][B,,B,][B,,B,] [B,,B,][B,,B,][D,B,][F,A,] | B,4 B,,2 D,D, | %3
 E,E,E,E, E,2 E,2 | B,,2 B,,B,, B,,2 [B,,F,B,][B,,F,] | %5
 [B,,B,][B,,B,][B,,B,][B,,B,] [B,,B,][B,,B,][D,B,][B,,B,] |[M:3/4] [E,G,E]4 [E,B,E]2 | %7
[M:1/4] [E,B,E][E,E] |[M:4/4] [F,CF][F,CF][F,CE][F,B,E] [F,A,E]2 [F,A,E]2 |[M:3/4] z2 G,G, F,2 | %10
[M:1/4][K:treble] DF |[M:4/4][K:bass] E,2 E,2 E,E,E,E, | B,,B,,B,,B,, B,,B,,D,D, | %13
 [F,A,F][F,A,F][F,A,F][F,A,F] [D,B,]2 [F,B,]2 | B,2 D,F, B,,2 D,D, | E,E,E,E, E,2 E,2 | %16
[M:3/4] B,,B,, B,,B,, B,,B,, |[M:1/4] [E,B,E][E,E] | %18
[M:4/4] [F,CF][F,CF][F,CE][F,B,E] [F,A,E]2 [F,A,E]2 |[M:7/4] z2 G,G, F,2 z2 z2 z4 |] %20
V:3
 x8 | x8 | x8 | x8 | B,2[K:bass] B,B, B,2 D[CE] | x8 |[M:3/4] x6 |[M:1/4] x2 |[M:4/4] x8 | %9
[M:3/4] [B,D]2 z2 z2 |[M:1/4] x2 |[M:4/4] B,2 B,2 B,[B,FA][B,GB][B,EG] | %12
 [B,EG]B,B,B, B,B,[B,FB][B,FB] | x8 | z2 B,B, B,2 [B,FB][B,FA] | x8 |[M:3/4] [B,EG]B, B,B, B,B, | %17
[M:1/4] x2 |[M:4/4] x8 |[M:7/4] [B,D]2 z2 z2 z2 z2 z4 |] %20
V:4
 x8 | x8 | x8 | x8 | x8 | x8 |[M:3/4] x6 |[M:1/4] x2 |[M:4/4] x8 |[M:3/4] B,,6 | %10
[M:1/4][K:treble] x2 |[M:4/4][K:bass] x8 | x8 | x8 | x8 | x8 |[M:3/4] x6 |[M:1/4] x2 |[M:4/4] x8 | %19
[M:7/4] B,,6 z2 z2 z4 |] %20

